traftonobrien/Babson-Baseball-Analytics/web/public/data/BBurk1/2026_04_24/pitch_data_overlay_lite.csv
pitch_number,pitcher_name,pitcher_hand,pitch_type,target_frame,arrival_frame,target_x,target_y,ball_x,ball_y,total_miss_px,total_miss_inches,h_miss_px,h_miss_inches,h_direction,h_miss_signed,v_miss_px,v_miss_inches,v_direction,v_miss_signed,target_quadrant,result_quadrant,target_zone,timestamp,is_outlier
1,BBurk1,R,FF,10,56,707.7,479.9,542.0,465.9,166.2,24.99,165.6,42.66,glove-side,42.66,14.0,3.62,high,-3.62,DM,,outside,1.867,1
2,BBurk1,R,FF,10,63,708.1,477.6,568.6,488.1,139.9,24.99,139.5,35.91,glove-side,35.91,10.5,2.71,low,2.71,DM,,outside,2.100,1
3,BBurk1,R,SL,10,63,705.2,470.7,724.0,559.9,91.2,23.48,18.8,4.83,arm-side,-4.83,89.2,22.98,low,22.98,DM,,outside,2.100,0
4,BBurk1,R,SI,10,77,707.8,476.2,747.0,400.8,85.0,21.88,39.2,10.09,arm-side,-10.09,75.4,19.41,high,-19.41,DM,,outside,2.567,0
5,BBurk1,R,SI,10,59,712.2,472.5,716.5,467.3,6.8,1.74,4.3,1.10,arm-side,-1.10,5.2,1.35,high,-1.35,DM,MM,outside,1.967,0
6,BBurk1,R,SI,10,78,711.0,480.8,705.0,419.5,61.6,15.86,6.0,1.54,glove-side,1.54,61.3,15.78,high,-15.78,DM,,outside,2.600,0
7,BBurk1,R,SI,10,65,704.4,475.7,728.6,493.3,29.9,7.70,24.2,6.23,arm-side,-6.23,17.6,4.53,low,4.53,DM,DA,outside,2.167,0
8,BBurk1,R,SI,10,43,704.1,468.6,758.6,543.1,92.3,23.78,54.5,14.04,arm-side,-14.04,74.5,19.19,low,19.19,DM,,outside,1.433,0
9,BBurk1,R,FF,10,113,710.1,470.6,685.5,474.6,24.8,6.40,24.5,6.32,glove-side,6.32,3.9,1.01,low,1.01,DM,DI,outside,3.767,0
10,BBurk1,R,CH,10,53,701.8,472.2,633.5,526.1,87.0,22.40,68.3,17.59,glove-side,17.59,53.9,13.88,low,13.88,DM,,outside,1.767,0
11,BBurk1,R,SI,10,60,710.5,472.1,642.5,486.4,69.5,17.89,68.0,17.50,glove-side,17.50,14.3,3.69,low,3.69,DM,,outside,2.000,0
12,BBurk1,R,SI,10,111,709.9,477.4,771.0,415.8,86.8,22.35,61.2,15.75,arm-side,-15.75,61.6,15.86,high,-15.86,DM,,outside,3.700,0
13,BBurk1,R,SI,10,64,706.2,475.7,709.0,492.2,16.7,4.31,2.8,0.72,arm-side,-0.72,16.5,4.25,low,4.25,DM,DM,outside,2.133,0
14,BBurk1,R,FF,10,145,709.8,472.2,669.0,438.5,52.9,13.62,40.8,10.51,glove-side,10.51,33.7,8.67,high,-8.67,DM,,outside,4.833,0
15,BBurk1,R,SI,10,78,705.7,474.6,630.7,499.6,79.1,20.36,75.0,19.33,glove-side,19.33,24.9,6.42,low,6.42,DM,,outside,2.600,0
16,BBurk1,R,SI,10,84,704.4,480.5,685.5,548.3,70.4,18.12,18.8,4.85,glove-side,4.85,67.8,17.46,low,17.46,DM,,outside,2.800,0
17,BBurk1,R,SI,10,57,708.8,478.4,652.1,455.3,61.2,15.77,56.7,14.60,glove-side,14.60,23.1,5.94,high,-5.94,DM,,outside,1.900,0
18,BBurk1,R,SI,10,62,709.5,477.6,769.5,430.8,76.1,19.59,60.0,15.44,arm-side,-15.44,46.8,12.06,high,-12.06,DM,,outside,2.067,0
19,BBurk1,R,SI,10,64,707.8,477.6,661.9,437.8,60.7,15.64,45.9,11.81,glove-side,11.81,39.8,10.25,high,-10.25,DM,,outside,2.133,0
20,BBurk1,R,2,10,102,715.3,473.9,694.0,486.8,24.9,6.42,21.3,5.49,glove-side,5.49,12.9,3.31,low,3.31,DM,DI,outside,3.400,0
21,BBurk1,R,SL,10,46,700.8,470.4,605.5,572.4,139.6,24.99,95.3,24.55,glove-side,24.55,102.0,26.28,low,26.28,DM,,outside,1.533,1
22,BBurk1,R,SI,10,59,710.6,481.3,679.0,491.4,33.1,8.52,31.5,8.12,glove-side,8.12,10.1,2.60,low,2.60,DM,DI,outside,1.967,0
23,BBurk1,R,SI,10,57,698.8,484.1,638.1,533.5,78.3,20.16,60.7,15.63,glove-side,15.63,49.5,12.74,low,12.74,DM,,outside,1.900,0
24,BBurk1,R,SI,10,93,700.2,477.5,588.4,505.3,115.2,24.99,111.8,28.80,glove-side,28.80,27.8,7.16,low,7.16,DM,,outside,3.100,1
25,BBurk1,R,SI,10,43,700.0,477.6,691.0,552.2,75.1,19.35,9.0,2.31,glove-side,2.31,74.6,19.21,low,19.21,DM,,outside,1.433,0
26,BBurk1,R,SI,10,68,701.6,487.7,695.6,444.4,43.7,11.27,6.0,1.54,glove-side,1.54,43.3,11.16,high,-11.16,DM,UM,outside,2.267,0
27,BBurk1,R,SI,10,49,712.2,474.3,685.2,548.7,79.0,20.36,26.9,6.94,glove-side,6.94,74.3,19.14,low,19.14,DM,,outside,1.633,0
28,BBurk1,R,SI,10,51,706.5,473.5,613.5,541.6,115.3,24.99,93.0,23.96,glove-side,23.96,68.1,17.53,low,17.53,DM,,outside,1.700,1
29,BBurk1,R,SI,10,59,708.2,472.9,549.1,445.4,161.4,24.99,159.1,40.97,glove-side,40.97,27.5,7.07,high,-7.07,DM,,outside,1.967,1
30,BBurk1,R,FF,10,72,709.8,473.3,742.9,486.2,35.5,9.13,33.0,8.50,arm-side,-8.50,12.9,3.33,low,3.33,DM,,outside,2.400,0
31,BBurk1,R,SI,10,77,709.3,475.8,758.9,513.2,62.1,16.00,49.6,12.78,arm-side,-12.78,37.4,9.63,low,9.63,DM,,outside,2.567,0
32,BBurk1,R,SI,10,61,710.8,472.4,684.0,424.3,55.0,14.17,26.8,6.90,glove-side,6.90,48.1,12.37,high,-12.37,DM,UI,outside,2.033,0
33,BBurk1,R,SI,10,51,710.0,467.6,689.9,505.9,43.3,11.15,20.1,5.18,glove-side,5.18,38.3,9.87,low,9.87,DM,,outside,1.700,0
34,BBurk1,R,SI,10,65,710.1,467.5,722.5,515.5,49.6,12.78,12.4,3.19,arm-side,-3.19,48.0,12.37,low,12.37,DM,,outside,2.167,0
35,BBurk1,R,SI,10,75,714.5,471.0,631.6,530.6,102.1,24.99,82.9,21.34,glove-side,21.34,59.6,15.35,low,15.35,DM,,outside,2.500,1
36,BBurk1,R,FF,10,90,712.9,471.7,618.6,415.6,109.7,24.99,94.3,24.29,glove-side,24.29,56.1,14.44,high,-14.44,DM,,outside,3.000,1
37,BBurk1,R,SI,10,62,712.4,471.2,652.1,511.7,72.6,18.70,60.3,15.53,glove-side,15.53,40.5,10.42,low,10.42,DM,,outside,2.067,0
38,BBurk1,R,SI,10,42,706.1,471.0,614.3,500.1,96.3,24.80,91.8,23.65,glove-side,23.65,29.0,7.48,low,7.48,DM,,outside,1.400,0
39,BBurk1,R,SI,10,76,712.1,473.3,657.7,460.8,55.8,14.38,54.4,14.01,glove-side,14.01,12.5,3.22,high,-3.22,DM,,outside,2.533,0
40,BBurk1,R,FF,10,52,709.4,473.2,731.1,510.1,42.8,11.02,21.7,5.59,arm-side,-5.59,36.9,9.49,low,9.49,DM,,outside,1.733,0
41,BBurk1,R,FF,10,68,709.9,474.1,651.9,511.7,69.0,17.78,57.9,14.92,glove-side,14.92,37.5,9.66,low,9.66,DM,,outside,2.267,0
42,BBurk1,R,SI,10,78,716.5,475.3,700.6,443.5,35.6,9.16,15.9,4.09,glove-side,4.09,31.8,8.19,high,-8.19,DM,UI,outside,2.600,0
43,BBurk1,R,SI,10,42,709.9,469.2,727.9,485.5,24.2,6.24,17.9,4.62,arm-side,-4.62,16.3,4.19,low,4.19,DM,DA,outside,1.400,0
44,BBurk1,R,SL,10,90,707.5,487.2,753.8,557.2,84.0,21.63,46.3,11.93,arm-side,-11.93,70.0,18.04,low,18.04,DM,,outside,3.000,0
45,BBurk1,R,SI,10,77,714.8,471.5,734.4,409.7,64.9,16.71,19.6,5.05,arm-side,-5.05,61.8,15.92,high,-15.92,DM,,outside,2.567,0
