traftonobrien/Babson-Baseball-Analytics/web/public/data/CSmith1/2026_02_28/pitch_data_overlay_lite.csv
pitch_number,pitcher_name,pitcher_hand,pitch_type,target_frame,arrival_frame,target_x,target_y,ball_x,ball_y,total_miss_px,total_miss_inches,h_miss_px,h_miss_inches,h_direction,h_miss_signed,v_miss_px,v_miss_inches,v_direction,v_miss_signed,target_quadrant,result_quadrant,target_zone,timestamp,is_outlier
1,Csmith1,L,FF,10,67,1057.7,728.6,1074.6,663.0,67.7,11.63,16.8,2.89,arm-side,-2.89,65.6,11.27,high,-11.27,DM,UA,outside,2.233,0
2,Csmith1,L,FF,10,71,1071.7,734.2,1185.0,731.0,113.4,19.47,113.3,19.46,arm-side,-19.46,3.2,0.55,high,-0.55,DM,,outside,2.367,0
3,Csmith1,L,FF,10,43,1105.5,731.8,1148.8,697.6,55.2,9.47,43.3,7.43,arm-side,-7.43,34.2,5.88,high,-5.88,DM,MA,outside,1.433,0
4,Csmith1,L,FF,10,70,1062.7,721.5,1113.5,781.1,78.3,13.44,50.7,8.71,arm-side,-8.71,59.6,10.23,low,10.23,DM,,outside,2.333,0
5,Csmith1,L,FF,10,43,1142.6,716.9,1119.7,635.7,84.4,14.48,22.9,3.94,glove-side,3.94,81.2,13.94,high,-13.94,DM,UI,outside,1.433,0
6,Csmith1,L,FF,10,63,1059.3,746.5,1119.9,696.1,78.9,13.54,60.7,10.41,arm-side,-10.41,50.4,8.66,high,-8.66,DM,,outside,2.100,0
7,Csmith1,L,FF,10,100,1055.1,747.7,1121.3,691.1,87.1,14.96,66.2,11.37,arm-side,-11.37,56.6,9.71,high,-9.71,DM,,outside,3.333,0
8,Csmith1,L,FF,10,59,1062.2,740.8,1058.1,632.9,108.0,18.55,4.1,0.70,glove-side,0.70,108.0,18.53,high,-18.53,DM,,outside,1.967,0
9,Csmith1,L,SL,10,75,1126.7,718.6,1188.6,726.0,62.4,10.71,61.9,10.63,arm-side,-10.63,7.4,1.27,low,1.27,DM,,outside,2.500,0
10,Csmith1,L,FF,10,81,1182.4,746.3,1155.5,698.2,55.2,9.47,26.9,4.62,glove-side,4.62,48.2,8.27,high,-8.27,DM,UI,outside,2.700,0
11,Csmith1,L,SL,10,46,1132.5,734.5,1144.7,764.5,32.4,5.57,12.2,2.10,arm-side,-2.10,30.0,5.15,low,5.15,DM,DM,outside,1.533,0
12,Csmith1,L,FS,10,69,1090.4,746.1,1068.3,748.0,22.2,3.81,22.1,3.80,glove-side,3.80,2.0,0.34,low,0.34,DM,DI,outside,2.300,0
13,Csmith1,L,SL,10,71,1090.3,741.4,1187.2,840.4,138.5,19.99,96.9,16.63,arm-side,-16.63,99.0,17.00,low,17.00,DM,,outside,2.367,1
14,Csmith1,L,FF,10,75,1151.9,746.4,1139.6,772.3,28.7,4.93,12.4,2.13,glove-side,2.13,25.9,4.45,low,4.45,DM,DM,outside,2.500,0
15,Csmith1,L,FS,10,81,1102.3,724.9,971.3,606.2,176.8,19.99,131.0,22.49,glove-side,22.49,118.7,20.38,high,-20.38,DM,,outside,2.700,1
16,Csmith1,L,FF,10,78,1152.3,739.9,1146.3,663.7,76.4,13.12,6.0,1.02,glove-side,1.02,76.2,13.08,high,-13.08,DM,UM,outside,2.600,0
17,Csmith1,L,FF,10,90,1064.5,747.6,1077.2,681.3,67.5,11.59,12.7,2.17,arm-side,-2.17,66.3,11.38,high,-11.38,DM,UM,outside,3.000,0
18,Csmith1,L,FF,10,90,1127.1,701.1,1132.2,682.1,19.7,3.38,5.1,0.88,arm-side,-0.88,19.0,3.26,high,-3.26,DM,MM,outside,3.000,0
19,Csmith1,L,FF,10,77,1120.8,723.4,1091.2,672.9,58.6,10.06,29.7,5.09,glove-side,5.09,50.5,8.68,high,-8.68,DM,UI,outside,2.567,0
20,Csmith1,L,FS,10,45,1088.1,704.0,998.7,768.0,109.9,18.87,89.4,15.34,glove-side,15.34,64.0,10.98,low,10.98,DM,,outside,1.500,0
21,Csmith1,L,SL,10,50,1134.1,727.2,1151.0,857.9,131.8,19.99,16.9,2.90,arm-side,-2.90,130.7,22.44,low,22.44,DM,,outside,1.667,1
22,Csmith1,L,FF,10,74,1138.4,763.4,1085.3,748.8,55.0,9.45,53.0,9.11,glove-side,9.11,14.6,2.50,high,-2.50,DM,,outside,2.467,0
23,Csmith1,L,FF,10,37,1124.6,738.3,1162.4,803.7,75.5,12.96,37.8,6.49,arm-side,-6.49,65.4,11.22,low,11.22,DM,,outside,1.233,0
24,Csmith1,L,FF,10,49,1141.2,708.3,1157.2,772.0,65.7,11.28,16.0,2.74,arm-side,-2.74,63.7,10.94,low,10.94,DM,,outside,1.633,0
25,Csmith1,L,FF,10,53,1135.1,742.6,1169.4,714.6,44.3,7.60,34.3,5.89,arm-side,-5.89,28.0,4.81,high,-4.81,DM,MA,outside,1.767,0
26,Csmith1,L,FF,10,68,1125.7,766.3,1160.5,658.8,113.0,19.40,34.8,5.97,arm-side,-5.97,107.5,18.46,high,-18.46,DM,,outside,2.267,0
27,Csmith1,L,FF,10,61,1014.6,701.2,1127.1,682.6,114.0,19.57,112.5,19.31,arm-side,-19.31,18.6,3.20,high,-3.20,DM,,outside,2.033,0
28,Csmith1,L,FF,10,66,1136.1,716.0,1083.9,682.6,62.0,10.64,52.2,8.97,glove-side,8.97,33.4,5.74,high,-5.74,DM,,outside,2.200,0
29,Csmith1,L,FS,10,51,1016.6,714.8,1178.0,760.8,167.8,19.99,161.4,27.72,arm-side,-27.72,45.9,7.88,low,7.88,DM,,outside,1.700,1
30,Csmith1,L,FF,10,49,1064.5,727.2,1069.6,668.2,59.2,10.17,5.1,0.88,arm-side,-0.88,59.0,10.13,high,-10.13,DM,UM,outside,1.633,0
31,Csmith1,L,FF,10,72,1042.8,722.2,1151.0,686.3,114.0,19.57,108.2,18.57,arm-side,-18.57,35.9,6.16,high,-6.16,DM,,outside,2.400,0
32,Csmith1,L,FF,10,53,1154.5,741.4,1057.7,701.1,104.8,17.99,96.7,16.61,glove-side,16.61,40.3,6.93,high,-6.93,DM,,outside,1.767,0
33,Csmith1,L,FF,10,40,1004.6,711.8,1019.4,690.7,25.8,4.43,14.9,2.55,arm-side,-2.55,21.1,3.62,high,-3.62,DM,MM,outside,1.333,0
34,Csmith1,L,FF,10,53,1132.3,702.9,1098.2,682.3,39.9,6.84,34.1,5.86,glove-side,5.86,20.6,3.54,high,-3.54,DM,MI,outside,1.767,0
35,Csmith1,L,FF,10,60,1071.1,712.0,1143.5,566.1,162.8,19.99,72.4,12.43,arm-side,-12.43,145.9,25.04,high,-25.04,DM,,outside,2.000,1
36,Csmith1,L,FF,10,74,1070.0,707.8,1164.9,773.0,115.1,19.77,94.9,16.29,arm-side,-16.29,65.2,11.20,low,11.20,DM,,outside,2.467,0
37,Csmith1,L,FF,10,67,1078.2,716.5,1208.2,717.0,130.1,19.99,130.1,22.33,arm-side,-22.33,0.6,0.10,low,0.10,DM,,outside,2.233,1
38,Csmith1,L,FF,10,56,1069.6,742.0,1036.6,737.6,33.3,5.72,33.0,5.67,glove-side,5.67,4.4,0.76,high,-0.76,DM,MI,outside,1.867,0
39,Csmith1,L,FF,10,74,1073.9,743.2,1046.3,701.6,50.0,8.58,27.6,4.74,glove-side,4.74,41.7,7.15,high,-7.15,DM,MI,outside,2.467,0
40,Csmith1,L,SL,10,58,1118.6,740.2,1195.1,866.1,147.4,19.99,76.6,13.15,arm-side,-13.15,125.9,21.61,low,21.61,DM,,outside,1.933,1
41,Csmith1,L,FF,10,39,1069.8,722.4,1098.1,770.1,55.5,9.52,28.3,4.86,arm-side,-4.86,47.7,8.19,low,8.19,DM,,outside,1.300,0
42,Csmith1,L,FF,10,108,1063.1,731.7,1102.6,666.8,75.9,13.03,39.4,6.77,arm-side,-6.77,64.8,11.13,high,-11.13,DM,UA,outside,3.600,0
43,Csmith1,L,FS,10,48,1072.1,734.2,994.7,658.8,108.1,18.56,77.4,13.29,glove-side,13.29,75.5,12.96,high,-12.96,DM,,outside,1.600,0
44,Csmith1,L,FF,10,76,1058.4,727.0,1123.6,539.4,198.7,19.99,65.2,11.20,arm-side,-11.20,187.6,32.22,high,-32.22,DM,,outside,2.533,1
45,Csmith1,L,FF,10,76,1063.7,736.1,1104.1,638.2,105.9,18.18,40.4,6.93,arm-side,-6.93,97.9,16.80,high,-16.80,DM,,outside,2.533,0
46,Csmith1,L,FF,10,94,1051.9,724.7,1137.4,712.6,86.3,14.82,85.5,14.67,arm-side,-14.67,12.1,2.07,high,-2.07,DM,,outside,3.133,0
47,Csmith1,L,CB,10,48,1117.5,724.6,1094.8,615.2,111.6,19.17,22.7,3.89,glove-side,3.89,109.3,18.77,high,-18.77,DM,,outside,1.600,0
48,Csmith1,L,FF,10,40,1069.0,713.7,1129.3,695.5,63.0,10.82,60.4,10.36,arm-side,-10.36,18.2,3.13,high,-3.13,DM,,outside,1.333,0
49,Csmith1,L,FF,10,54,1085.6,719.4,1168.1,759.6,91.8,15.76,82.6,14.18,arm-side,-14.18,40.1,6.89,low,6.89,DM,,outside,1.800,0
50,Csmith1,L,FF,10,39,1071.7,700.2,1102.7,658.6,51.8,8.89,30.9,5.31,arm-side,-5.31,41.6,7.13,high,-7.13,DM,MA,outside,1.300,0
51,Csmith1,L,FF,10,60,1050.1,743.0,1158.5,845.4,149.1,19.99,108.4,18.61,arm-side,-18.61,102.4,17.57,low,17.57,DM,,outside,2.000,1
52,Csmith1,L,FF,10,40,1061.9,736.5,1118.3,748.3,57.6,9.89,56.4,9.68,arm-side,-9.68,11.9,2.04,low,2.04,DM,,outside,1.333,0
53,Csmith1,L,FF,10,34,1146.5,718.8,1139.8,686.2,33.3,5.71,6.7,1.15,glove-side,1.15,32.6,5.60,high,-5.60,DM,MM,outside,1.133,0
54,Csmith1,L,FF,10,63,1054.4,742.0,1139.1,596.3,168.6,19.99,84.7,14.54,arm-side,-14.54,145.8,25.03,high,-25.03,DM,,outside,2.100,1
55,Csmith1,L,FF,10,66,1079.8,764.7,1187.2,647.4,159.0,19.99,107.4,18.44,arm-side,-18.44,117.3,20.13,high,-20.13,DM,,outside,2.200,1
56,Csmith1,L,FF,10,138,1063.8,718.3,1114.5,703.6,52.8,9.07,50.8,8.71,arm-side,-8.71,14.7,2.53,high,-2.53,DM,,outside,4.600,0
57,Csmith1,L,FS,10,66,1083.9,717.5,1017.4,703.3,68.1,11.69,66.6,11.43,glove-side,11.43,14.2,2.44,high,-2.44,DM,,outside,2.200,0
58,Csmith1,L,FF,10,95,1066.8,707.0,1107.4,699.0,41.3,7.10,40.6,6.96,arm-side,-6.96,8.0,1.37,high,-1.37,DM,MA,outside,3.167,0
59,Csmith1,L,FF,10,75,1069.6,726.3,1114.1,731.2,44.8,7.69,44.5,7.64,arm-side,-7.64,4.9,0.84,low,0.84,DM,DA,outside,2.500,0
60,Csmith1,L,FF,10,37,1046.1,718.0,1073.5,591.5,129.4,19.99,27.4,4.70,arm-side,-4.70,126.5,21.71,high,-21.71,DM,,outside,1.233,1
61,Csmith1,L,FF,10,46,1054.6,701.7,1116.1,578.3,137.8,19.99,61.5,10.56,arm-side,-10.56,123.3,21.17,high,-21.17,DM,,outside,1.533,1
62,Csmith1,L,FF,10,42,1058.9,734.2,1059.4,716.6,17.7,3.03,0.5,0.09,arm-side,-0.09,17.7,3.03,high,-3.03,DM,MM,outside,1.400,0
63,Csmith1,L,FS,10,44,1085.7,716.8,1134.8,848.5,140.6,19.99,49.1,8.43,arm-side,-8.43,131.7,22.61,low,22.61,DM,,outside,1.467,1
64,Csmith1,L,FF,10,50,1157.6,735.2,1120.0,654.9,88.7,15.23,37.6,6.45,glove-side,6.45,80.3,13.79,high,-13.79,DM,UI,outside,1.667,0
65,Csmith1,L,FF,10,46,1050.9,716.1,1050.0,721.8,5.8,1.00,0.8,0.14,glove-side,0.14,5.8,0.99,low,0.99,DM,DM,outside,1.533,0
66,Csmith1,L,FF,10,42,1046.0,737.6,1120.8,719.9,76.9,13.20,74.8,12.84,arm-side,-12.84,17.7,3.04,high,-3.04,DM,,outside,1.400,0
67,Csmith1,L,FF,,,,,,,,,,,,,,,,,,,,,0
68,Csmith1,L,FF,10,45,1060.1,702.8,1142.6,609.1,124.8,19.99,82.4,14.15,arm-side,-14.15,93.7,16.09,high,-16.09,DM,,outside,1.500,1
69,Csmith1,L,FF,10,71,1155.8,711.5,1160.1,697.3,14.8,2.55,4.3,0.74,arm-side,-0.74,14.2,2.44,high,-2.44,DM,MM,outside,2.367,0
70,Csmith1,L,FS,10,57,1098.2,682.8,1048.5,678.0,49.9,8.57,49.7,8.53,glove-side,8.53,4.8,0.83,high,-0.83,DM,,outside,1.900,0
71,Csmith1,L,FF,10,55,1172.7,700.1,1094.5,695.9,78.3,13.45,78.2,13.43,glove-side,13.43,4.3,0.73,high,-0.73,DM,,outside,1.833,0
72,Csmith1,L,FF,10,67,1057.6,716.5,1117.0,662.8,80.1,13.75,59.3,10.19,arm-side,-10.19,53.8,9.23,high,-9.23,DM,,outside,2.233,0
73,Csmith1,L,FS,10,86,1093.0,723.0,1085.6,756.6,34.4,5.91,7.4,1.27,glove-side,1.27,33.6,5.77,low,5.77,DM,DM,outside,2.867,0
74,Csmith1,L,FF,10,67,1023.7,731.0,1170.5,544.0,237.8,19.99,146.8,25.21,arm-side,-25.21,187.0,32.11,high,-32.11,DM,,outside,2.233,1
75,Csmith1,L,FS,10,46,1085.0,708.1,1058.2,754.4,53.6,9.19,26.8,4.61,glove-side,4.61,46.3,7.96,low,7.96,DM,,outside,1.533,0
