traftonobrien/Babson-Baseball-Analytics/web/public/data/TPearl1/2026_03_25/pitch_data_overlay_lite.csv
pitch_number,pitcher_name,pitcher_hand,pitch_type,target_frame,arrival_frame,target_x,target_y,ball_x,ball_y,total_miss_px,total_miss_inches,h_miss_px,h_miss_inches,h_direction,h_miss_signed,v_miss_px,v_miss_inches,v_direction,v_miss_signed,target_quadrant,result_quadrant,target_zone,timestamp
1,TPearl1,L,FF,10,90,696.2,477.5,722.8,524.2,53.7,13.84,26.6,6.85,glove-side,6.85,46.7,12.03,low,12.03,DM,,inside,3.000
2,TPearl1,L,FF,10,98,694.2,485.1,687.9,428.0,57.4,14.79,6.3,1.62,arm-side,-1.62,57.1,14.70,high,-14.70,DM,UM,inside,3.267
3,TPearl1,L,FF,10,41,590.3,489.0,748.9,399.5,182.1,46.89,158.6,40.83,glove-side,40.83,89.5,23.05,high,-23.05,DM,,outside,1.367
4,TPearl1,L,FF,10,49,705.5,480.0,666.9,426.8,65.7,16.91,38.6,9.93,arm-side,-9.93,53.1,13.68,high,-13.68,DM,,inside,1.633
5,TPearl1,L,FF,10,86,688.7,474.1,733.9,498.1,51.1,13.17,45.2,11.63,glove-side,11.63,24.0,6.17,low,6.17,DM,,inside,2.867
6,TPearl1,L,FF,10,68,691.7,478.0,677.3,430.1,50.1,12.90,14.4,3.71,arm-side,-3.71,48.0,12.35,high,-12.35,DM,UA,inside,2.267
7,TPearl1,L,FF,10,97,684.2,483.4,702.9,393.6,91.7,23.62,18.7,4.81,glove-side,4.81,89.8,23.13,high,-23.13,DM,,inside,3.233
8,TPearl1,L,FF,10,58,689.2,474.6,729.6,496.3,45.8,11.81,40.4,10.40,glove-side,10.40,21.7,5.59,low,5.59,DM,,inside,1.933
9,TPearl1,L,FF,10,90,695.9,477.6,747.3,503.5,57.5,14.81,51.4,13.23,glove-side,13.23,25.8,6.65,low,6.65,DM,,inside,3.000
10,TPearl1,L,FF,10,98,694.4,485.4,697.8,433.3,52.1,13.43,3.4,0.87,glove-side,0.87,52.0,13.40,high,-13.40,DM,UM,inside,3.267
11,TPearl1,L,FF,10,41,800.7,476.9,759.3,484.9,42.1,10.85,41.4,10.65,arm-side,-10.65,8.0,2.07,low,2.07,DM,,inside,1.367
12,TPearl1,L,FF,10,49,705.5,479.9,666.8,426.8,65.7,16.91,38.7,9.97,arm-side,-9.97,53.0,13.66,high,-13.66,DM,,inside,1.633
13,TPearl1,L,FF,10,86,689.2,473.8,779.1,463.1,90.6,23.33,89.9,23.16,glove-side,23.16,10.7,2.76,high,-2.76,DM,,inside,2.867
14,TPearl1,L,FF,10,68,691.5,478.3,679.8,432.3,47.4,12.21,11.8,3.03,arm-side,-3.03,45.9,11.83,high,-11.83,DM,UA,inside,2.267
15,TPearl1,L,FF,10,97,684.1,483.2,703.1,393.4,91.8,23.64,19.0,4.89,glove-side,4.89,89.8,23.13,high,-23.13,DM,,inside,3.233
16,TPearl1,L,FF,10,58,689.3,474.4,801.6,530.8,125.6,32.35,112.3,28.91,glove-side,28.91,56.4,14.52,low,14.52,DM,,inside,1.933
17,TPearl1,L,FF,10,60,684.8,472.7,736.8,476.6,52.2,13.44,52.0,13.40,glove-side,13.40,3.9,1.01,low,1.01,DM,,inside,2.000
18,TPearl1,L,FF,10,52,686.3,487.0,689.6,449.5,37.6,9.69,3.2,0.83,glove-side,0.83,37.5,9.66,high,-9.66,DM,UM,inside,1.733
19,TPearl1,L,FF,10,57,596.2,500.6,616.9,467.7,38.9,10.01,20.7,5.33,glove-side,5.33,32.9,8.47,high,-8.47,DM,UI,outside,1.900
20,TPearl1,L,FF,10,106,676.8,501.5,701.0,419.0,85.9,22.13,24.1,6.22,glove-side,6.22,82.5,21.24,high,-21.24,DM,,inside,3.533
21,TPearl1,L,FF,10,55,676.8,489.4,706.8,464.2,39.1,10.08,30.0,7.72,glove-side,7.72,25.2,6.48,high,-6.48,DM,MI,inside,1.833
22,TPearl1,L,FF,10,42,677.9,474.3,755.7,506.2,84.1,21.66,77.8,20.05,glove-side,20.05,31.9,8.21,low,8.21,DM,,inside,1.400
23,TPearl1,L,FF,10,74,681.2,488.3,720.2,446.7,57.0,14.68,38.9,10.03,glove-side,10.03,41.6,10.72,high,-10.72,DM,,inside,2.467
24,TPearl1,L,FF,10,57,584.2,503.9,659.1,399.3,128.6,33.13,74.9,19.29,glove-side,19.29,104.6,26.93,high,-26.93,DM,,outside,1.900
25,TPearl1,L,FF,10,43,660.0,494.9,668.8,427.9,67.6,17.40,8.8,2.28,glove-side,2.28,67.0,17.25,high,-17.25,DM,,inside,1.433
26,TPearl1,L,FF,10,41,636.3,497.7,659.6,425.9,75.5,19.43,23.2,5.99,glove-side,5.99,71.8,18.49,high,-18.49,DM,,inside,1.367
27,TPearl1,L,FF,10,49,689.0,492.1,760.1,558.2,97.1,25.01,71.1,18.32,glove-side,18.32,66.1,17.03,low,17.03,DM,,inside,1.633
28,TPearl1,L,FF,10,38,683.8,494.6,711.1,514.5,33.7,8.69,27.3,7.02,glove-side,7.02,19.9,5.11,low,5.11,DM,DI,inside,1.267
29,TPearl1,L,FF,10,67,679.0,490.9,731.5,458.8,61.5,15.85,52.5,13.52,glove-side,13.52,32.1,8.27,high,-8.27,DM,,inside,2.233
30,TPearl1,L,FF,10,40,682.6,481.0,692.9,404.5,77.2,19.89,10.2,2.64,glove-side,2.64,76.6,19.72,high,-19.72,DM,,inside,1.333
31,TPearl1,L,FF,10,57,697.8,483.6,721.7,419.6,68.3,17.59,23.8,6.14,glove-side,6.14,64.0,16.48,high,-16.48,DM,,inside,1.900
32,TPearl1,L,FF,10,72,699.7,496.7,703.9,436.9,60.0,15.45,4.2,1.08,glove-side,1.08,59.9,15.41,high,-15.41,DM,UM,inside,2.400
33,TPearl1,L,FF,10,37,700.9,500.9,703.1,450.5,50.4,12.98,2.2,0.55,glove-side,0.55,50.4,12.97,high,-12.97,DM,UM,inside,1.233
34,TPearl1,L,CH,10,42,682.0,476.8,729.3,532.5,73.1,18.83,47.3,12.19,glove-side,12.19,55.8,14.36,low,14.36,DM,,inside,1.400
35,TPearl1,L,FF,10,49,689.3,486.4,697.7,504.1,19.5,5.03,8.4,2.17,glove-side,2.17,17.6,4.54,low,4.54,DM,DM,inside,1.633
36,TPearl1,L,FF,10,48,685.8,479.3,703.1,513.0,37.8,9.74,17.2,4.44,glove-side,4.44,33.7,8.67,low,8.67,DM,,inside,1.600
37,TPearl1,L,FF,10,40,694.4,492.1,771.6,536.2,88.9,22.90,77.3,19.90,glove-side,19.90,44.1,11.34,low,11.34,DM,,inside,1.333
38,TPearl1,L,CH,10,61,692.7,493.2,646.0,475.0,50.2,12.93,46.8,12.04,arm-side,-12.04,18.2,4.69,high,-4.69,DM,,inside,2.033
39,TPearl1,L,CH,10,36,677.3,492.4,703.5,579.7,91.1,23.46,26.2,6.74,glove-side,6.74,87.2,22.47,low,22.47,DM,,inside,1.200
40,TPearl1,L,FF,10,83,694.5,498.7,646.0,488.7,49.5,12.75,48.5,12.49,arm-side,-12.49,10.0,2.57,high,-2.57,DM,,inside,2.767
41,TPearl1,L,FF,10,81,680.4,494.9,668.4,447.8,48.6,12.50,12.0,3.09,arm-side,-3.09,47.1,12.12,high,-12.12,DM,UA,inside,2.700
42,TPearl1,L,FF,10,79,697.9,483.5,741.9,519.2,56.6,14.58,44.0,11.33,glove-side,11.33,35.6,9.18,low,9.18,DM,,inside,2.633
43,TPearl1,L,FF,10,52,701.3,488.6,778.5,563.2,107.4,27.65,77.2,19.87,glove-side,19.87,74.6,19.22,low,19.22,DM,,inside,1.733
44,TPearl1,L,FF,10,90,704.6,483.9,645.9,481.8,58.7,15.12,58.7,15.11,arm-side,-15.11,2.0,0.52,high,-0.52,DM,,inside,3.000
45,TPearl1,L,FF,10,41,717.5,486.3,748.3,500.3,33.9,8.72,30.8,7.94,glove-side,7.94,14.0,3.61,low,3.61,DM,DI,inside,1.367
46,TPearl1,L,FF,10,57,694.2,477.2,733.9,464.1,41.8,10.75,39.7,10.21,glove-side,10.21,13.1,3.37,high,-3.37,DM,,inside,1.900
47,TPearl1,L,FF,10,55,669.5,481.5,645.5,481.3,24.0,6.18,24.0,6.18,arm-side,-6.18,0.1,0.03,high,-0.03,DM,DA,inside,1.833
48,TPearl1,L,FF,10,54,665.3,474.0,676.6,479.5,12.6,3.25,11.3,2.91,glove-side,2.91,5.5,1.43,low,1.43,DM,DI,inside,1.800
49,TPearl1,L,FF,10,66,682.7,486.6,651.1,387.7,103.8,26.74,31.7,8.15,arm-side,-8.15,98.9,25.46,high,-25.46,DM,,inside,2.200
50,TPearl1,L,FF,10,37,676.4,478.6,729.6,446.2,62.3,16.05,53.2,13.71,glove-side,13.71,32.4,8.35,high,-8.35,DM,,inside,1.233
